Newaita-dark/apps/32/com.github.artemanufrij.findfileconflicts.svg

<svg height="32" viewBox="0 0 32 32" width="32" xmlns="http://www.w3.org/2000/svg" xmlns:xlink="http://www.w3.org/1999/xlink"><linearGradient id="a"><stop offset="0" stop-opacity=".313726"/><stop offset=".222222" stop-opacity=".27451"/><stop offset="1" stop-opacity="0"/></linearGradient><radialGradient id="b" cx="450.908936" cy="189.579361" gradientTransform="matrix(.00000017 -.0781325 -.140638 -.0000001 44.523152 63.595329)" gradientUnits="userSpaceOnUse" r="21.166656" xlink:href="#a"/><radialGradient id="c" cx="450.908936" cy="189.579361" gradientTransform="matrix(-.00000017 .0781325 .140638 .0000001 -12.770119 -7.527482)" gradientUnits="userSpaceOnUse" r="21.166656" xlink:href="#a"/><radialGradient id="d" cx="450.908936" cy="189.579361" gradientTransform="matrix(-.00000017 -.0781325 .140638 -.0000001 -12.770119 63.595329)" gradientUnits="userSpaceOnUse" r="21.166656" xlink:href="#a"/><radialGradient id="e" cx="450.908936" cy="189.579361" gradientTransform="matrix(.00000017 .0781325 -.140638 .0000001 44.52315 -7.527483)" gradientUnits="userSpaceOnUse" r="21.166656" xlink:href="#a"/><linearGradient id="f" gradientTransform="matrix(.0133601 0 0 .062506 12.465386 13.438784)" gradientUnits="userSpaceOnUse" x1="255.323059" x2="255.323044" y1="233.5" y2="254.666656"><stop offset="0" stop-opacity=".27451"/><stop offset="1" stop-opacity="0"/></linearGradient><linearGradient id="g" gradientUnits="userSpaceOnUse" x1="15.876524" x2="15.876524" y1="2.89610399997" y2="28.033934"><stop offset="0" stop-color="#ff8a65"/><stop offset="1" stop-color="#ff7043"/></linearGradient><linearGradient id="h" gradientTransform="matrix(.0309691 .05364 -.05364 .0309691 9.770485 .820871)" gradientUnits="userSpaceOnUse" x1="344.628418" x2="163.846085" y1="123.740433" y2="-57.04192"><stop offset="0" stop-color="#ffa726"/><stop offset="1" stop-color="#ffb74d"/></linearGradient><linearGradient id="i" gradientUnits="userSpaceOnUse" x1="15.876524" x2="15.876524" y1="28.033934" y2="2.89610399997"><stop offset="0" stop-color="#424242"/><stop offset="1" stop-color="#616161"/></linearGradient><linearGradient id="j" gradientTransform="matrix(-.062506 0 0 .062506 31.75303 13.438783)" gradientUnits="userSpaceOnUse" x1="254" x2="254" y1="233.5" y2="-168.666672"><stop offset="0" stop-color="#bdbdbd"/><stop offset="1" stop-color="#e0e0e0"/></linearGradient><path d="m18.191406 28.035156h2.648438v-1.324218h-2.648438zm0 0" fill="url(#b)"/><path d="m13.5625 28.035156h-2.648438v1.320313h2.648438zm0 0" fill="url(#c)"/><path d="m13.5625 28.035156h-2.648438v-1.324218h2.648438zm0 0" fill="url(#d)"/><path d="m18.191406 28.035156h2.648438v1.320313h-2.648438zm0 0" fill="url(#e)"/><path d="m13.5625 27.703125h4.628906v1.652344h-4.628906zm0 0" fill="url(#f)"/><path d="m15.875 2.894531c6.941406 0 12.570312 5.628907 12.570312 12.570313s-5.628906 12.570312-12.570312 12.570312-12.566406-5.628906-12.566406-12.570312 5.625-12.570313 12.566406-12.570313zm0 0" fill="url(#g)"/><path d="m15.875 28.035156c-6.960938 0-12.566406-5.605468-12.566406-12.570312 0-.039063 0-.082032 0-.121094.066406 6.902344 5.644531 12.445312 12.566406 12.445312s12.503906-5.542968 12.570312-12.445312v.121094c0 6.964844-5.605468 12.570312-12.570312 12.570312zm0 0" fill-opacity=".196078"/><path d="m15.875 2.894531c-6.960938 0-12.566406 5.605469-12.566406 12.570313v.125c.066406-6.90625 5.644531-12.449219 12.566406-12.449219s12.503906 5.542969 12.570312 12.449219c0-.042969 0-.082032 0-.125 0-6.964844-5.605468-12.570313-12.570312-12.570313zm0 0" fill="#fff" fill-opacity=".392157"/><path d="m10.222656 18.726562c-.246094-.425781 2.199219-2.042968 2.09375-2.527343-.101562-.480469-2.992187-.964844-2.941406-1.453125.050781-.492188 2.980469-.363282 3.179688-.8125.203124-.449219-1.855469-2.542969-1.523438-2.910156.328125-.363282 2.625 1.460937 3.050781 1.214843.425781-.246093-.007812-3.148437.472657-3.25.484374-.101562 1.265624 2.722657 1.757812 2.777344.488281.050781 1.84375-2.550781 2.292969-2.351563.449219.199219-.578125 2.949219-.210938 3.277344.367188.328125 2.992188-.980468 3.238281-.550781.246094.425781-2.199218 2.042969-2.097656 2.523437.101563.484376 2.996094.96875 2.941406 1.457032-.050781.492187-2.980468.363281-3.179687.8125-.199219.449218 1.855469 2.542968 1.523437 2.90625-.328124.367187-2.625-1.457032-3.050781-1.210938s.007813 3.144532-.472656 3.246094c-.484375.105469-1.265625-2.722656-1.757813-2.773438-.488281-.050781-1.84375 2.550782-2.292968 2.351563-.449219-.203125.578125-2.949219.210937-3.277344-.367187-.332031-2.988281.976563-3.234375.550781zm0 0" fill="url(#h)"/><path d="m15.875 2.800781c-7.011719 0-12.660156 5.652344-12.660156 12.664063 0 7.011718 5.648437 12.664062 12.660156 12.664062 7.015625 0 12.664062-5.652344 12.664062-12.664062 0-7.011719-5.648437-12.664063-12.664062-12.664063zm0 .1875c6.914062 0 12.476562 5.5625 12.476562 12.476563 0 6.914062-5.5625 12.476562-12.476562 12.476562-6.910156 0-12.472656-5.5625-12.472656-12.476562 0-6.914063 5.5625-12.476563 12.472656-12.476563zm0 0" fill="#212121"/><path d="m9.242188 9.511719c-.355469.011719-.640626.300781-.640626.660156v1.988281h-5.542968c-.269532 1.054688-.414063 2.164063-.414063 3.304688 0 1.144531.144531 2.25.414063 3.308594h5.542968v1.984374c0 .570313.671876.871094 1.097657.492188l5.953125-5.292969c.296875-.261719.296875-.722656 0-.984375l-5.953125-5.292968c-.117188-.105469-.265625-.164063-.421875-.167969-.011719 0-.023438 0-.035156 0zm0 0" fill="url(#i)"/><path d="m22.511719 9.511719c-.011719 0-.023438 0-.035157 0-.15625.003906-.304687.0625-.421874.167969l-5.953126 5.292968c-.296874.261719-.296874.722656 0 .984375l5.953126 5.292969c.425781.378906 1.097656.078125 1.097656-.492188v-1.984374h5.542968c.269532-1.058594.410157-2.164063.410157-3.308594 0-1.140625-.140625-2.25-.410157-3.304688h-5.542968v-1.988281c0-.359375-.285156-.648437-.640625-.660156zm0 0" fill="url(#j)"/><path d="m9.242188 9.511719c-.355469.011719-.640626.300781-.640626.660156v.496094c0-.359375.285157-.652344.640626-.660157h.035156c.15625.003907.304687.0625.421875.167969l5.953125 5.289063c.078125.070312.136718.15625.175781.246094.097656-.25.039063-.546876-.175781-.738282l-5.953125-5.292968c-.117188-.105469-.265625-.164063-.421875-.167969-.011719 0-.023438 0-.035156 0zm-6.183594 2.648437c-.269532 1.054688-.414063 2.164063-.414063 3.304688 0 .082031.003907.164062.003907.246094.019531-1.054688.160156-2.078126.410156-3.058594h5.542968v-.492188zm0 0" fill="#efefef" fill-opacity=".313726"/><path d="m22.511719 9.511719c-.011719 0-.023438 0-.035157 0-.15625.003906-.304687.0625-.421874.167969l-5.953126 5.292968c-.21875.191406-.273437.488282-.175781.738282.039063-.089844.09375-.175782.175781-.246094l5.953126-5.289063c.117187-.105469.265624-.164062.421874-.167969h.035157c.355469.007813.640625.300782.640625.660157v-.496094c0-.359375-.285156-.648437-.640625-.660156zm.640625 2.648437v.492188h5.542968c.25.980468.390626 2.003906.410157 3.058594 0-.082032 0-.164063 0-.246094 0-1.140625-.140625-2.25-.410157-3.304688zm0 0" fill="#efefef"/><path d="m15.785156 15.796875c-.035156.058594-.078125.113281-.132812.164063l-5.953125 5.289062c-.425781.378906-1.097657.078125-1.097657-.492188v.660157c0 .570312.671876.875 1.097657.496093l5.953125-5.292968c.242187-.214844.285156-.5625.132812-.824219zm-12.042968 2.976563c.0625.222656.128906.441406.199218.660156h4.660156v-.660156zm0 0" fill-opacity=".235294"/><path d="m15.96875 15.796875c-.152344.261719-.109375.609375.132812.824219l5.953126 5.292968c.425781.378907 1.097656.074219 1.097656-.496093v-.660157c0 .570313-.671875.871094-1.097656.492188l-5.953126-5.289062c-.054687-.050782-.101562-.105469-.132812-.164063zm7.183594 2.976563v.660156h4.65625c.074218-.21875.140625-.4375.199218-.660156zm0 0" fill-opacity=".235294"/><g fill="none" stroke="#212121" stroke-linecap="round" stroke-linejoin="round" stroke-opacity=".954839"><path d="m558.8443 575.141957c-21.494011.708594-38.73646 18.187241-38.73646 39.91745v120.224746h-335.164862c-16.297657 63.773441-25.03698 130.853653-25.03698 199.823448 0 69.205993 8.739323 136.050007 25.03698 200.059646h335.164862v119.988548c0 34.484898 40.626044 52.672138 66.371618 29.760939l359.965644-320.048194c17.951042-15.825261 17.951042-43.696617 0-59.521878l-359.965644-320.048194c-7.085938-6.377344-16.061459-9.920313-25.509376-10.156511-.708594 0-1.417188 0-2.125782 0zm0 0" stroke-width="11.338583" transform="scale(.016538)"/><path d="m360.153107-62.827032c5.686957.187482 10.249021 4.812041 10.249021 10.561492v31.809462h88.679032c4.312088 16.873389 6.561873 34.621694 6.561873 52.869951 0 18.310752-2.249785 35.996563-6.561873 52.932445h-88.679032v31.746969c0 9.124128-10.748973 13.936169-17.560823 7.874248l-95.240905-84.679414c-4.749546-4.1871-4.749546-11.561396 0-15.748496l95.240905-84.679413c1.874821-1.687339 4.249595-2.62475 6.749356-2.687244zm0 0" stroke-width="3" transform="matrix(.062506 0 0 .062506 0 13.438783)"/></g></svg>

<?xml version="1.0" encoding="UTF-8"?>
<svg xmlns="http://www.w3.org/2000/svg" xmlns:xlink="http://www.w3.org/1999/xlink" width="32px" height="32px" viewBox="0 0 32 32" version="1.1">
<defs>
<radialGradient id="radial0" gradientUnits="userSpaceOnUse" cx="450.908936" cy="189.579361" fx="450.908936" fy="189.579361" r="21.166656" gradientTransform="matrix(0.00000017417,-0.0781325,-0.140638,-0.000000101539,44.523152,63.595329)">
<stop offset="0" style="stop-color:rgb(0%,0%,0%);stop-opacity:0.313726;"/>
<stop offset="0.222222" style="stop-color:rgb(0%,0%,0%);stop-opacity:0.27451;"/>
<stop offset="1" style="stop-color:rgb(0%,0%,0%);stop-opacity:0;"/>
</radialGradient>
<radialGradient id="radial1" gradientUnits="userSpaceOnUse" cx="450.908936" cy="189.579361" fx="450.908936" fy="189.579361" r="21.166656" gradientTransform="matrix(-0.00000017417,0.0781325,0.140638,0.000000101539,-12.770119,-7.527482)">
<stop offset="0" style="stop-color:rgb(0%,0%,0%);stop-opacity:0.313726;"/>
<stop offset="0.222222" style="stop-color:rgb(0%,0%,0%);stop-opacity:0.27451;"/>
<stop offset="1" style="stop-color:rgb(0%,0%,0%);stop-opacity:0;"/>
</radialGradient>
<radialGradient id="radial2" gradientUnits="userSpaceOnUse" cx="450.908936" cy="189.579361" fx="450.908936" fy="189.579361" r="21.166656" gradientTransform="matrix(-0.00000017417,-0.0781325,0.140638,-0.000000101539,-12.770119,63.595329)">
<stop offset="0" style="stop-color:rgb(0%,0%,0%);stop-opacity:0.313726;"/>
<stop offset="0.222222" style="stop-color:rgb(0%,0%,0%);stop-opacity:0.27451;"/>
<stop offset="1" style="stop-color:rgb(0%,0%,0%);stop-opacity:0;"/>
</radialGradient>
<radialGradient id="radial3" gradientUnits="userSpaceOnUse" cx="450.908936" cy="189.579361" fx="450.908936" fy="189.579361" r="21.166656" gradientTransform="matrix(0.00000017417,0.0781325,-0.140638,0.000000101539,44.52315,-7.527483)">
<stop offset="0" style="stop-color:rgb(0%,0%,0%);stop-opacity:0.313726;"/>
<stop offset="0.222222" style="stop-color:rgb(0%,0%,0%);stop-opacity:0.27451;"/>
<stop offset="1" style="stop-color:rgb(0%,0%,0%);stop-opacity:0;"/>
</radialGradient>
<linearGradient id="linear0" gradientUnits="userSpaceOnUse" x1="255.323059" y1="233.5" x2="255.323044" y2="254.666656" gradientTransform="matrix(0.0133601,0,0,0.062506,12.465386,13.438784)">
<stop offset="0" style="stop-color:rgb(0%,0%,0%);stop-opacity:0.27451;"/>
<stop offset="1" style="stop-color:rgb(0%,0%,0%);stop-opacity:0;"/>
</linearGradient>
<linearGradient id="linear1" gradientUnits="userSpaceOnUse" x1="254" y1="-168.666672" x2="254" y2="233.5" gradientTransform="matrix(0.062506,0,0,0.062506,0,13.438783)">
<stop offset="0" style="stop-color:rgb(100%,54.11765%,39.607844%);stop-opacity:1;"/>
<stop offset="1" style="stop-color:rgb(100%,43.921569%,26.274511%);stop-opacity:1;"/>
</linearGradient>
<linearGradient id="linear2" gradientUnits="userSpaceOnUse" x1="344.628418" y1="123.740433" x2="163.846085" y2="-57.04192" gradientTransform="matrix(0.0309691,0.05364,-0.05364,0.0309691,9.770485,0.820871)">
<stop offset="0" style="stop-color:rgb(100%,65.490198%,14.901961%);stop-opacity:1;"/>
<stop offset="1" style="stop-color:rgb(100%,71.764708%,30.19608%);stop-opacity:1;"/>
</linearGradient>
<linearGradient id="linear3" gradientUnits="userSpaceOnUse" x1="254" y1="233.5" x2="254" y2="-168.666672" gradientTransform="matrix(0.062506,0,0,0.062506,0,13.438783)">
<stop offset="0" style="stop-color:rgb(25.882354%,25.882354%,25.882354%);stop-opacity:1;"/>
<stop offset="1" style="stop-color:rgb(38.039216%,38.039216%,38.039216%);stop-opacity:1;"/>
</linearGradient>
<linearGradient id="linear4" gradientUnits="userSpaceOnUse" x1="254" y1="233.5" x2="254" y2="-168.666672" gradientTransform="matrix(-0.062506,0,0,0.062506,31.75303,13.438783)">
<stop offset="0" style="stop-color:rgb(74.117649%,74.117649%,74.117649%);stop-opacity:1;"/>
<stop offset="1" style="stop-color:rgb(87.843138%,87.843138%,87.843138%);stop-opacity:1;"/>
</linearGradient>
</defs>
<g id="surface1">
<path style=" stroke:none;fill-rule:nonzero;fill:url(#radial0);" d="M 18.191406 28.035156 L 20.839844 28.035156 L 20.839844 26.710938 L 18.191406 26.710938 Z M 18.191406 28.035156 "/>
<path style=" stroke:none;fill-rule:nonzero;fill:url(#radial1);" d="M 13.5625 28.035156 L 10.914062 28.035156 L 10.914062 29.355469 L 13.5625 29.355469 Z M 13.5625 28.035156 "/>
<path style=" stroke:none;fill-rule:nonzero;fill:url(#radial2);" d="M 13.5625 28.035156 L 10.914062 28.035156 L 10.914062 26.710938 L 13.5625 26.710938 Z M 13.5625 28.035156 "/>
<path style=" stroke:none;fill-rule:nonzero;fill:url(#radial3);" d="M 18.191406 28.035156 L 20.839844 28.035156 L 20.839844 29.355469 L 18.191406 29.355469 Z M 18.191406 28.035156 "/>
<path style=" stroke:none;fill-rule:nonzero;fill:url(#linear0);" d="M 13.5625 27.703125 L 18.191406 27.703125 L 18.191406 29.355469 L 13.5625 29.355469 Z M 13.5625 27.703125 "/>
<path style=" stroke:none;fill-rule:nonzero;fill:url(#linear1);" d="M 15.875 2.894531 C 22.816406 2.894531 28.445312 8.523438 28.445312 15.464844 C 28.445312 22.40625 22.816406 28.035156 15.875 28.035156 C 8.933594 28.035156 3.308594 22.40625 3.308594 15.464844 C 3.308594 8.523438 8.933594 2.894531 15.875 2.894531 Z M 15.875 2.894531 "/>
<path style=" stroke:none;fill-rule:nonzero;fill:rgb(0%,0%,0%);fill-opacity:0.196078;" d="M 15.875 28.035156 C 8.914062 28.035156 3.308594 22.429688 3.308594 15.464844 C 3.308594 15.425781 3.308594 15.382812 3.308594 15.34375 C 3.375 22.246094 8.953125 27.789062 15.875 27.789062 C 22.796875 27.789062 28.378906 22.246094 28.445312 15.34375 C 28.445312 15.382812 28.445312 15.425781 28.445312 15.464844 C 28.445312 22.429688 22.839844 28.035156 15.875 28.035156 Z M 15.875 28.035156 "/>
<path style=" stroke:none;fill-rule:nonzero;fill:rgb(100%,100%,100%);fill-opacity:0.392157;" d="M 15.875 2.894531 C 8.914062 2.894531 3.308594 8.5 3.308594 15.464844 C 3.308594 15.507812 3.308594 15.546875 3.308594 15.589844 C 3.375 8.683594 8.953125 3.140625 15.875 3.140625 C 22.796875 3.140625 28.378906 8.683594 28.445312 15.589844 C 28.445312 15.546875 28.445312 15.507812 28.445312 15.464844 C 28.445312 8.5 22.839844 2.894531 15.875 2.894531 Z M 15.875 2.894531 "/>
<path style=" stroke:none;fill-rule:nonzero;fill:url(#linear2);" d="M 10.222656 18.726562 C 9.976562 18.300781 12.421875 16.683594 12.316406 16.199219 C 12.214844 15.71875 9.324219 15.234375 9.375 14.746094 C 9.425781 14.253906 12.355469 14.382812 12.554688 13.933594 C 12.757812 13.484375 10.699219 11.390625 11.03125 11.023438 C 11.359375 10.660156 13.65625 12.484375 14.082031 12.238281 C 14.507812 11.992188 14.074219 9.089844 14.554688 8.988281 C 15.039062 8.886719 15.820312 11.710938 16.3125 11.765625 C 16.800781 11.816406 18.15625 9.214844 18.605469 9.414062 C 19.054688 9.613281 18.027344 12.363281 18.394531 12.691406 C 18.761719 13.019531 21.386719 11.710938 21.632812 12.140625 C 21.878906 12.566406 19.433594 14.183594 19.535156 14.664062 C 19.636719 15.148438 22.53125 15.632812 22.476562 16.121094 C 22.425781 16.613281 19.496094 16.484375 19.296875 16.933594 C 19.097656 17.382812 21.152344 19.476562 20.820312 19.839844 C 20.492188 20.207031 18.195312 18.382812 17.769531 18.628906 C 17.34375 18.875 17.777344 21.773438 17.296875 21.875 C 16.8125 21.980469 16.03125 19.152344 15.539062 19.101562 C 15.050781 19.050781 13.695312 21.652344 13.246094 21.453125 C 12.796875 21.25 13.824219 18.503906 13.457031 18.175781 C 13.089844 17.84375 10.46875 19.152344 10.222656 18.726562 Z M 10.222656 18.726562 "/>
<path style=" stroke:none;fill-rule:nonzero;fill:rgb(12.941177%,12.941177%,12.941177%);fill-opacity:1;" d="M 15.875 2.800781 C 8.863281 2.800781 3.214844 8.453125 3.214844 15.464844 C 3.214844 22.476562 8.863281 28.128906 15.875 28.128906 C 22.890625 28.128906 28.539062 22.476562 28.539062 15.464844 C 28.539062 8.453125 22.890625 2.800781 15.875 2.800781 Z M 15.875 2.988281 C 22.789062 2.988281 28.351562 8.550781 28.351562 15.464844 C 28.351562 22.378906 22.789062 27.941406 15.875 27.941406 C 8.964844 27.941406 3.402344 22.378906 3.402344 15.464844 C 3.402344 8.550781 8.964844 2.988281 15.875 2.988281 Z M 15.875 2.988281 "/>
<path style=" stroke:none;fill-rule:nonzero;fill:url(#linear3);" d="M 9.242188 9.511719 C 8.886719 9.523438 8.601562 9.8125 8.601562 10.171875 L 8.601562 12.160156 L 3.058594 12.160156 C 2.789062 13.214844 2.644531 14.324219 2.644531 15.464844 C 2.644531 16.609375 2.789062 17.714844 3.058594 18.773438 L 8.601562 18.773438 L 8.601562 20.757812 C 8.601562 21.328125 9.273438 21.628906 9.699219 21.25 L 15.652344 15.957031 C 15.949219 15.695312 15.949219 15.234375 15.652344 14.972656 L 9.699219 9.679688 C 9.582031 9.574219 9.433594 9.515625 9.277344 9.511719 C 9.265625 9.511719 9.253906 9.511719 9.242188 9.511719 Z M 9.242188 9.511719 "/>
<path style=" stroke:none;fill-rule:nonzero;fill:url(#linear4);" d="M 22.511719 9.511719 C 22.5 9.511719 22.488281 9.511719 22.476562 9.511719 C 22.320312 9.515625 22.171875 9.574219 22.054688 9.679688 L 16.101562 14.972656 C 15.804688 15.234375 15.804688 15.695312 16.101562 15.957031 L 22.054688 21.25 C 22.480469 21.628906 23.152344 21.328125 23.152344 20.757812 L 23.152344 18.773438 L 28.695312 18.773438 C 28.964844 17.714844 29.105469 16.609375 29.105469 15.464844 C 29.105469 14.324219 28.964844 13.214844 28.695312 12.160156 L 23.152344 12.160156 L 23.152344 10.171875 C 23.152344 9.8125 22.867188 9.523438 22.511719 9.511719 Z M 22.511719 9.511719 "/>
<path style=" stroke:none;fill-rule:nonzero;fill:rgb(93.725491%,93.725491%,93.725491%);fill-opacity:0.313726;" d="M 9.242188 9.511719 C 8.886719 9.523438 8.601562 9.8125 8.601562 10.171875 L 8.601562 10.667969 C 8.601562 10.308594 8.886719 10.015625 9.242188 10.007812 C 9.253906 10.007812 9.265625 10.007812 9.277344 10.007812 C 9.433594 10.011719 9.582031 10.070312 9.699219 10.175781 L 15.652344 15.464844 C 15.730469 15.535156 15.789062 15.621094 15.828125 15.710938 C 15.925781 15.460938 15.867188 15.164062 15.652344 14.972656 L 9.699219 9.679688 C 9.582031 9.574219 9.433594 9.515625 9.277344 9.511719 C 9.265625 9.511719 9.253906 9.511719 9.242188 9.511719 Z M 3.058594 12.160156 C 2.789062 13.214844 2.644531 14.324219 2.644531 15.464844 C 2.644531 15.546875 2.648438 15.628906 2.648438 15.710938 C 2.667969 14.65625 2.808594 13.632812 3.058594 12.652344 L 8.601562 12.652344 L 8.601562 12.160156 Z M 3.058594 12.160156 "/>
<path style=" stroke:none;fill-rule:nonzero;fill:rgb(93.725491%,93.725491%,93.725491%);fill-opacity:1;" d="M 22.511719 9.511719 C 22.5 9.511719 22.488281 9.511719 22.476562 9.511719 C 22.320312 9.515625 22.171875 9.574219 22.054688 9.679688 L 16.101562 14.972656 C 15.882812 15.164062 15.828125 15.460938 15.925781 15.710938 C 15.964844 15.621094 16.019531 15.535156 16.101562 15.464844 L 22.054688 10.175781 C 22.171875 10.070312 22.320312 10.011719 22.476562 10.007812 C 22.488281 10.007812 22.5 10.007812 22.511719 10.007812 C 22.867188 10.015625 23.152344 10.308594 23.152344 10.667969 L 23.152344 10.171875 C 23.152344 9.8125 22.867188 9.523438 22.511719 9.511719 Z M 23.152344 12.160156 L 23.152344 12.652344 L 28.695312 12.652344 C 28.945312 13.632812 29.085938 14.65625 29.105469 15.710938 C 29.105469 15.628906 29.105469 15.546875 29.105469 15.464844 C 29.105469 14.324219 28.964844 13.214844 28.695312 12.160156 Z M 23.152344 12.160156 "/>
<path style=" stroke:none;fill-rule:nonzero;fill:rgb(0%,0%,0%);fill-opacity:0.235294;" d="M 15.785156 15.796875 C 15.75 15.855469 15.707031 15.910156 15.652344 15.960938 L 9.699219 21.25 C 9.273438 21.628906 8.601562 21.328125 8.601562 20.757812 L 8.601562 21.417969 C 8.601562 21.988281 9.273438 22.292969 9.699219 21.914062 L 15.652344 16.621094 C 15.894531 16.40625 15.9375 16.058594 15.785156 15.796875 Z M 3.742188 18.773438 C 3.804688 18.996094 3.871094 19.214844 3.941406 19.433594 L 8.601562 19.433594 L 8.601562 18.773438 Z M 3.742188 18.773438 "/>
<path style=" stroke:none;fill-rule:nonzero;fill:rgb(0%,0%,0%);fill-opacity:0.235294;" d="M 15.96875 15.796875 C 15.816406 16.058594 15.859375 16.40625 16.101562 16.621094 L 22.054688 21.914062 C 22.480469 22.292969 23.152344 21.988281 23.152344 21.417969 L 23.152344 20.757812 C 23.152344 21.328125 22.480469 21.628906 22.054688 21.25 L 16.101562 15.960938 C 16.046875 15.910156 16 15.855469 15.96875 15.796875 Z M 23.152344 18.773438 L 23.152344 19.433594 L 27.808594 19.433594 C 27.882812 19.214844 27.949219 18.996094 28.007812 18.773438 Z M 23.152344 18.773438 "/>
<path style="fill:none;stroke-width:11.338583;stroke-linecap:round;stroke-linejoin:round;stroke:rgb(12.941177%,12.941177%,12.941177%);stroke-opacity:0.954839;stroke-miterlimit:4;" d="M 558.8443 575.141957 C 537.350289 575.850551 520.10784 593.329198 520.10784 615.059407 L 520.10784 735.284153 L 184.942978 735.284153 C 168.645321 799.057594 159.905998 866.137806 159.905998 935.107601 C 159.905998 1004.313594 168.645321 1071.157608 184.942978 1135.167247 L 520.10784 1135.167247 L 520.10784 1255.155795 C 520.10784 1289.640693 560.733884 1307.827933 586.479458 1284.916734 L 946.445102 964.86854 C 964.396144 949.043279 964.396144 921.171923 946.445102 905.346662 L 586.479458 585.298468 C 579.39352 578.921124 570.417999 575.378155 560.970082 575.141957 C 560.261488 575.141957 559.552894 575.141957 558.8443 575.141957 Z M 558.8443 575.141957 " transform="matrix(0.016538,0,0,0.016538,0,0)"/>
<path style="fill:none;stroke-width:3;stroke-linecap:round;stroke-linejoin:round;stroke:rgb(12.941177%,12.941177%,12.941177%);stroke-opacity:0.954839;stroke-miterlimit:4;" d="M 360.153107 -62.827032 C 365.840064 -62.63955 370.402128 -58.014991 370.402128 -52.26554 L 370.402128 -20.456078 L 459.08116 -20.456078 C 463.393248 -3.582689 465.643033 14.165616 465.643033 32.413873 C 465.643033 50.724625 463.393248 68.410436 459.08116 85.346318 L 370.402128 85.346318 L 370.402128 117.093287 C 370.402128 126.217415 359.653155 131.029456 352.841305 124.967535 L 257.6004 40.288121 C 252.850854 36.101021 252.850854 28.726725 257.6004 24.539625 L 352.841305 -60.139788 C 354.716126 -61.827127 357.0909 -62.764538 359.590661 -62.827032 C 359.778143 -62.827032 359.965625 -62.827032 360.153107 -62.827032 Z M 360.153107 -62.827032 " transform="matrix(0.062506,0,0,0.062506,0,13.438783)"/>
</g>
</svg>
